core/assets/icons/cash.svg

<svg xmlns="http://www.w3.org/2000/svg" width="24" height="24" fill="none"><g fill="#191C22" fill-rule="evenodd" clip-rule="evenodd"><path d="M9 7v4H8v2h1v1H8v2h1v1h2v-1h4v-2h-4v-1h2a3 3 0 1 0 0-6H9Zm5 3a1 1 0 0 1-1 1h-2V9h2a1 1 0 0 1 1 1Z"/><path d="M2 12c0 5.5 4.5 10 10 10s10-4.5 10-10S17.5 2 12 2 2 6.5 2 12Zm18 0c0 4.4-3.6 8-8 8s-8-3.6-8-8 3.6-8 8-8 8 3.6 8 8Z"/></g></svg>

<svg width="24" height="24" viewBox="0 0 24 24" xmlns="http://www.w3.org/2000/svg"><g id="cash"><g id="Vector"><path fill-rule="evenodd" clip-rule="evenodd" d="M9 7V11H8V13H9V14H8V16H9V17H11V16H15V14H11V13H13C14.6569 13 16 11.6569 16 10C16 8.34315 14.6569 7 13 7H9ZM14 10C14 10.5523 13.5523 11 13 11H11V9H13C13.5523 9 14 9.44772 14 10Z"/><path fill-rule="evenodd" clip-rule="evenodd" d="M2 12C2 17.5 6.5 22 12 22C17.5 22 22 17.5 22 12C22 6.5 17.5 2 12 2C6.5 2 2 6.5 2 12ZM20 12C20 16.4 16.4 20 12 20C7.6 20 4 16.4 4 12C4 7.6 7.6 4 12 4C16.4 4 20 7.6 20 12Z"/></g></g></svg>
